file-percent-outline.svg

<svg fill="currentColor" viewBox="0 0 24 24"><path d="M14 2H6a2 2 0 0 0-2 2v16c0 1.11.89 2 2 2h12c1.11 0 2-.89 2-2V8zm4 18H6V4h7v5h5zm-8-8.5c0 .83-.67 1.5-1.5 1.5S7 12.33 7 11.5 7.67 10 8.5 10s1.5.67 1.5 1.5m6 6c0 .83-.67 1.5-1.5 1.5s-1.5-.67-1.5-1.5.67-1.5 1.5-1.5 1.5.67 1.5 1.5m0-6.15L8.37 19 7 17.65 14.65 10z"/></svg>

<svg  viewBox="0 0 24 24" fill="currentColor"><path  d="M14 2H6C4.89 2 4 2.9 4 4V20C4 21.11 4.89 22 6 22H18C19.11 22 20 21.11 20 20V8L14 2M18 20H6V4H13V9H18V20M10 11.5C10 12.33 9.33 13 8.5 13S7 12.33 7 11.5 7.67 10 8.5 10 10 10.67 10 11.5M16 17.5C16 18.33 15.33 19 14.5 19S13 18.33 13 17.5 13.67 16 14.5 16 16 16.67 16 17.5M16 11.35L8.37 19L7 17.65L14.65 10L16 11.35Z"/></svg>
